X: 1443
T: the Bashful Bachelor
R: reel
B: O'Neill's 1850 #1443
O: J.O'Neill
Z: Bob Safranek, rjs@gsp.org
Z: Ornament (~) is a mordant.
M: C|
L: 1/8
K: D
|: D2FA d2AF | d2(fd) ecAc |\
[1 d2(Ad) BAGF | EFGE (~FD) D2 :|\
[2 defg a2(af) | bgeg (fd) d2 ||
|: d2dg ((3fga) fd | g2bg e2 \
[1 cA | d2dg ((3fga) fd | ecAc d2(FA) :|\
[2 fg | afge fdec | dBAG (FD) D2 |]
